X:29
T:Roving Boys of Pleasure,The. TJD.29
M:2/4
L:1/8
Q:1/4=120
S:T.J.Dixon MS1, Lincolnshire, 1798
R:Air
A:Lincolnshire, Holton le Moor
Z:vmp.R.Greig2010
K:G
“^cr in MS”G|Bd ef|gd ec|BG AF|GG Gg|!
fa ge|(fd/c/) Bd|ee (ed/c/)”^bar line added”| BdHg2:|!
|:g|fa ge|ed/c/ Bd|ee (ed/c/)”^Bar line added”| Bd “_both crotchets in MS”Hg G|!
“^all quavers in MS”Bc/d/ ef|gd ec|BG AF|GGG2:|]

